src/lib/packages/icons/src/assets/line/messages-text.svg

<svg width="24" height="24" viewBox="0 0 24 24" fill="none" xmlns="http://www.w3.org/2000/svg">
<path d="M19 8.25H17.75V5.33301C17.75 3.37401 16.626 2.25 14.667 2.25H5.33301C3.37401 2.25 2.25 3.37401 2.25 5.33301V17C2.25 17.303 2.43289 17.577 2.71289 17.693C2.80589 17.732 2.903 17.75 3 17.75C3.195 17.75 3.38703 17.674 3.53003 17.53L5.64307 15.416H8.24902V17C8.24902 18.748 9.25102 19.75 10.999 19.75H18.688L20.468 21.53C20.612 21.674 20.803 21.75 20.998 21.75C21.095 21.75 21.1919 21.731 21.2849 21.693C21.5649 21.577 21.748 21.303 21.748 21V11C21.75 9.252 20.748 8.25 19 8.25ZM5.33301 13.917C5.13401 13.917 4.94298 13.996 4.80298 14.137L3.75 15.1899V5.33496C3.75 4.19496 4.19301 3.75195 5.33301 3.75195H14.667C15.807 3.75195 16.25 4.19596 16.25 5.33496V12.335C16.25 13.474 15.807 13.918 14.667 13.918H5.33301V13.917ZM20.25 19.189L19.53 18.469C19.389 18.328 19.199 18.249 19 18.249H11C10.089 18.249 9.75 17.91 9.75 16.999V15.416H14.667C16.626 15.416 17.75 14.292 17.75 12.333V9.75H19C19.911 9.75 20.25 10.089 20.25 11V19.189ZM13.8611 7.27795C13.8611 7.69195 13.5251 8.02795 13.1111 8.02795H6.88794C6.47394 8.02795 6.13794 7.69195 6.13794 7.27795C6.13794 6.86395 6.47394 6.52795 6.88794 6.52795H13.1111C13.5251 6.52795 13.8611 6.86395 13.8611 7.27795ZM11.5271 10.389C11.5271 10.803 11.1911 11.139 10.7771 11.139H6.88794C6.47394 11.139 6.13794 10.803 6.13794 10.389C6.13794 9.97504 6.47394 9.63904 6.88794 9.63904H10.7771C11.1911 9.63904 11.5271 9.97504 11.5271 10.389Z" fill="currentColor"/>
</svg>

<svg xmlns="http://www.w3.org/2000/svg" width="24" height="24" fill="none"><path fill="currentColor" d="M19 8.25h-1.25V5.333c0-1.959-1.124-3.083-3.083-3.083H5.333c-1.959 0-3.083 1.124-3.083 3.083V17a.75.75 0 0 0 1.28.53l2.113-2.114H8.25V17c0 1.748 1.002 2.75 2.75 2.75h7.689l1.78 1.78a.748.748 0 0 0 1.28-.53V11c.002-1.748-1-2.75-2.748-2.75ZM5.333 13.917a.747.747 0 0 0-.53.22L3.75 15.19V5.335c0-1.14.443-1.583 1.583-1.583h9.334c1.14 0 1.583.444 1.583 1.583v7c0 1.139-.443 1.583-1.583 1.583H5.333v-.001Zm14.917 5.272-.72-.72a.749.749 0 0 0-.53-.22h-8c-.911 0-1.25-.339-1.25-1.25v-1.583h4.917c1.959 0 3.083-1.124 3.083-3.083V9.75H19c.911 0 1.25.339 1.25 1.25v8.189ZM13.861 7.278a.75.75 0 0 1-.75.75H6.888a.75.75 0 0 1 0-1.5h6.223a.75.75 0 0 1 .75.75Zm-2.334 3.111a.75.75 0 0 1-.75.75h-3.89a.75.75 0 0 1 0-1.5h3.89a.75.75 0 0 1 .75.75Z"/></svg>
